X:1
T:New Year's Waltz
M:3/4
L:1/8
R:waltz
K:Bm
Bb fd ef | gfe2a2 | fd Bc de | dB cAF2 | GF GA Bc | Bb fd ef | gf ed cd |1 c3e dc :|2 B3c df |:
bB bB bB | aA cd ef | g2ag eg | f2d4 | cde3g | f2d2B2 |1 b4c'2 | f3e df :|2 cB ce dc | B6 |]



